rospo-dark/16x16/actions/cm_markplus.svg

<svg height="16" viewBox="0 0 16 16" width="16" xmlns="http://www.w3.org/2000/svg"><path d="m2 2v12h7v-2h-2v-2h2v-2h2v2h2v2h-2v2h3v-12zm1 1h10v3h-10z" fill="#d3dae3"/></svg>

<?xml version="1.0" encoding="UTF-8" standalone="no"?>
<svg xmlns="http://www.w3.org/2000/svg" width="22" height="22" viewBox="0 0 22 22">
 <defs>
  <style type="text/css" id="current-color-scheme">
   .ColorScheme-Text { color:#d3dae3; } .ColorScheme-Highlight { color:#5294e2; }
  </style>
 </defs>
 <path style="fill:currentColor;opacity:1" class="ColorScheme-Text" transform="translate(3 3)" d="M 2 2 L 2 14 L 9 14 L 9 12 L 7 12 L 7 10 L 9 10 L 9 8 L 11 8 L 11 10 L 13 10 L 13 12 L 11 12 L 11 14 L 14 14 L 14 2 L 2 2 z M 3 3 L 13 3 L 13 6 L 3 6 L 3 3 z"/>
</svg>
